X:22101
T: the Laird of Milton's Daughter
C: W.G.M.Christian (1951)
R: jig
B: RSCDS 22-10
Z: 1997 by John Chambers <jc:trillian.mit.edu>
N:
M: 6/8
L: 1/8
%--------------------
K: A
E \
| "A"A2A ABc | efe cBA | "E"BAB "A"cBA | "Bm"FBA "E"GFE \
| "A"A2A ABc | efe "(F#m)"cBA | "D"faf "A"ecA | "E"BAA "A"A2 :|
e \
| "A"a2a c'ba | "E"gfg "A"aec | "D"faf "A"edc | "B7"BcA "E"GFE \
| "A"a2a c'ba | "E"gfg "A"aec | "D"fed "A"eac | "E"BAA "A"A2 ||
e \
| "A"a2a c'ba | "E"gfg "A"aec | "D"faf "A"ecA | "B7"BcA "E"GFE \
| "A"A2A ABc | efe "(F#m)"cBA | "D"faf "A"ecA | "E"BAA "A"A2 |]
